public/img/icons/cloud.svg

<svg width="62" height="64" viewBox="0 0 62 64" fill="none" xmlns="http://www.w3.org/2000/svg">
<path d="M21.041 44.9712H13.6869L10.0356 55.3834H13.0445L9.79199 63.9999L21.6015 50.9977H16.771L21.041 44.9712Z" fill="white"/>
<path d="M36.083 44.9712H28.73L25.0787 55.3834H28.0864L24.834 63.9999L36.6434 50.9977H31.813L36.083 44.9712Z" fill="white"/>
<path d="M51.126 44.9712H43.772L40.1207 55.3834H43.1283L39.877 63.9999L51.6853 50.9977H46.856L51.126 44.9712Z" fill="white"/>
<path d="M50.1668 17.2991C50.1611 17.2991 50.1566 17.2991 50.1521 17.2991C50.1588 17.1071 50.1668 16.9161 50.1668 16.7219C50.1668 7.4865 42.68 0 33.4448 0C24.7935 0 17.6765 6.57012 16.8116 14.9934C15.5986 14.6182 14.3094 14.4161 12.974 14.4161C5.80862 14.4161 0 20.2249 0 27.3902C0 34.5555 5.80862 40.3643 12.974 40.3643H50.1668C56.5358 40.3643 61.6999 35.2014 61.6999 28.8311C61.6997 22.462 56.5358 17.2991 50.1668 17.2991Z" fill="white"/>
</svg>

<svg xmlns="http://www.w3.org/2000/svg" width="62" height="64" fill="none" viewBox="0 0 62 64"><path fill="#fff" d="M21.041 44.971h-7.354l-3.651 10.412h3.008L9.793 64l11.81-13.002H16.77zm15.042 0H28.73l-3.651 10.412h3.007L24.834 64l11.81-13.002h-4.831zm15.043 0h-7.354l-3.651 10.412h3.007L39.877 64l11.808-13.002h-4.829zM50.167 17.3h-.015c.007-.193.015-.384.015-.578C50.167 7.486 42.68 0 33.445 0c-8.651 0-15.768 6.57-16.633 14.993a13 13 0 0 0-3.838-.577C5.809 14.416 0 20.225 0 27.39c0 7.166 5.809 12.974 12.974 12.974h37.193c6.369 0 11.533-5.163 11.533-11.533S56.536 17.3 50.167 17.3"/></svg>
